svgs/materials/action/repartition.svg

<svg xmlns="http://www.w3.org/2000/svg" enable-background="new 0 0 24 24" height="24" viewBox="0 0 24 24" width="24"><g><rect fill="none" height="24" width="24"/></g><g><g><path d="M3,21h18v-6H3V21z M10.33,19v-2h3.33v2H10.33z M19,19h-3.33v-2H19V19z M5,17h3.33v2H5V17z"/><path d="M6,10l1.42-1.42L5.83,7H17c1.1,0,2,0.9,2,2s-0.9,2-2,2H3v2h14c2.21,0,4-1.79,4-4s-1.79-4-4-4H5.83l1.59-1.59L6,2L2,6L6,10 z"/></g></g></svg>

<?xml version="1.0" encoding="UTF-8" standalone="no"?>
<svg
   enable-background="new 0 0 24 24"
   height="24"
   viewBox="0 0 24 24"
   width="24"
   version="1.1"
   id="svg14"
   sodipodi:docname="repartition.svg"
   inkscape:version="1.2 (dc2aeda, 2022-05-15)"
   xmlns:inkscape="http://www.inkscape.org/namespaces/inkscape"
   xmlns:sodipodi="http://sodipodi.sourceforge.net/DTD/sodipodi-0.dtd"
   xmlns="http://www.w3.org/2000/svg"
   xmlns:svg="http://www.w3.org/2000/svg">
  <defs
     id="defs18" />
  <sodipodi:namedview
     id="namedview16"
     pagecolor="#ffffff"
     bordercolor="#000000"
     borderopacity="0.25"
     inkscape:showpageshadow="2"
     inkscape:pageopacity="0.0"
     inkscape:pagecheckerboard="0"
     inkscape:deskcolor="#d1d1d1"
     showgrid="false"
     inkscape:zoom="9.8333333"
     inkscape:cx="11.949153"
     inkscape:cy="12"
     inkscape:window-width="1309"
     inkscape:window-height="456"
     inkscape:window-x="0"
     inkscape:window-y="25"
     inkscape:window-maximized="0"
     inkscape:current-layer="svg14" />
  <path
     id="rect2"
     style="fill:none"
     d="M 0,0 H 24 V 24 H 0 Z" />
  <path
     d="M 3,21 H 21 V 15 H 3 Z m 7.33,-2 v -2 h 3.33 v 2 z M 19,19 H 15.67 V 17 H 19 Z M 5,17 h 3.33 v 2 H 5 Z"
     id="path6" />
  <path
     d="M 6,10 7.42,8.58 5.83,7 H 17 c 1.1,0 2,0.9 2,2 0,1.1 -0.9,2 -2,2 H 3 v 2 h 14 c 2.21,0 4,-1.79 4,-4 C 21,6.79 19.21,5 17,5 H 5.83 L 7.42,3.41 6,2 2,6 Z"
     id="path8" />
</svg>
